X:36
T:Cotillon or figure dance
S:Petrie's Collection of Strathspey Reels and Country Dances &c., 1790
Z:Steve Wyrick , 3/19/04
N:Petrie's First Collection, page 17
L:1/8
M:2/4
R:Cotillon
K:E
  ee/f/    ge      |cc/d/ec          |BAGF             |E/F/G/F/ EE |\
  ee/f/ge          |cc/d/ec          |BAGF             |E2       E2:|
|:EE/F/    GE      |BB/c/    dB      |cagf             |e/d/e/f/ ee |\
  EE/F/    GE      |BB/c/    dB      |ca g/f/e/d/      |e2       e2:|
|:ge/f/    ge      |affa             |gbbe             |d/e/f/d/ B2 |\
  ge/f/    ge      |af/g/    af      |g/b/g/e/ f/a/f/d/|e2       E2:|
|:E/B/G/B/ E/B/G/B/|E/c/A/c/ E/c/A/c/|Fagf             |e/d/e/f/ ee |\
  E/B/G/B/ E/B/G/B/|E/c/A/c/ E/c/A/c/|Fa g/f/e/d/      |e2       e2:|
